projects/seb-pictograms/svg/regular/120-Picto-Regular_black.svg

<svg xmlns="http://www.w3.org/2000/svg" viewBox="0 0 170 170"><path d="M67.5 85.5h-6.3V69.3a23.9 23.9 0 10-47.7 0v16.2H8a2.9 2.9 0 00-3 3v51.2a3 3 0 003 3h59.5a3 3 0 003-3V88.5a2.9 2.9 0 00-3-3zm-48-16.2a17.9 17.9 0 1135.7 0v16.2H19.5zm45 67.4H11V91.5h53.5z"/><path d="M162 27.3H32.6a3.1 3.1 0 00-3 3v7.4h6v-4.4H139v7.8a3.1 3.1 0 003 3 6.3 6.3 0 016.3 6.2 2.9 2.9 0 003 3h7.7v16.8h-7.7a3 3 0 00-3 3 6.3 6.3 0 01-6.3 6.3 3 3 0 00-3 3v8H79.1v6H162a3 3 0 003-3V30.3a3 3 0 00-3-3zm-8.1 20a12.4 12.4 0 00-8.9-8.9v-5.1h14v14zM145 90.4V85a12.2 12.2 0 008.9-8.9h5.1v14.3z"/><path d="M97.3 81.5a19.7 19.7 0 10-19.6-19.6 19.7 19.7 0 0019.6 19.6zm0-33.3a13.7 13.7 0 11-13.6 13.7 13.7 13.7 0 0113.6-13.7z"/></svg>

<svg id="PIKTOGRAM" xmlns="http://www.w3.org/2000/svg" viewBox="0 0 170 170"><title>regular_black</title><metadata><?xpacket begin="﻿" id="W5M0MpCehiHzreSzNTczkc9d"?>
<x:xmpmeta xmlns:x="adobe:ns:meta/" x:xmptk="Adobe XMP Core 5.6-c137 79.159547, 2016/07/07-11:39:24        ">
   <rdf:RDF xmlns:rdf="http://www.w3.org/1999/02/22-rdf-syntax-ns#">
      <rdf:Description rdf:about=""
            xmlns:dc="http://purl.org/dc/elements/1.1/"
            xmlns:xmpMM="http://ns.adobe.com/xap/1.0/mm/"
            xmlns:stEvt="http://ns.adobe.com/xap/1.0/sType/ResourceEvent#"
            xmlns:xmp="http://ns.adobe.com/xap/1.0/">
         <dc:title>
            <rdf:Alt>
               <rdf:li xml:lang="x-default">regular_black</rdf:li>
            </rdf:Alt>
         </dc:title>
         <xmpMM:PreservedFileName>regular_black_8.svg</xmpMM:PreservedFileName>
         <xmpMM:InstanceID>xmp.iid:0110a8bd-62ab-404e-8ab9-f812d5d48938</xmpMM:InstanceID>
         <xmpMM:DocumentID>xmp.did:0110a8bd-62ab-404e-8ab9-f812d5d48938</xmpMM:DocumentID>
         <xmpMM:OriginalDocumentID>xmp.did:0110a8bd-62ab-404e-8ab9-f812d5d48938</xmpMM:OriginalDocumentID>
         <xmpMM:History>
            <rdf:Seq>
               <rdf:li>
                  <rdf:Description>
                     <stEvt:action>saved</stEvt:action>
                     <stEvt:instanceID>xmp.iid:0110a8bd-62ab-404e-8ab9-f812d5d48938</stEvt:instanceID>
                     <stEvt:when>2017-11-29T15:49:18+01:00</stEvt:when>
                     <stEvt:softwareAgent>Adobe Bridge CC 2017 (Windows)</stEvt:softwareAgent>
                     <stEvt:changed>/metadata</stEvt:changed>
                  </rdf:Description>
               </rdf:li>
            </rdf:Seq>
         </xmpMM:History>
         <xmp:MetadataDate>2017-11-29T15:49:18+01:00</xmp:MetadataDate>
      </rdf:Description>
   </rdf:RDF>
</x:xmpmeta>
                                                                                                    
                                                                                                    
                                                                                                    
                                                                                                    
                                                                                                    
                                                                                                    
                                                                                                    
                                                                                                    
                                                                                                    
                                                                                                    
                                                                                                    
                                                                                                    
                                                                                                    
                                                                                                    
                                                                                                    
                                                                                                    
                                                                                                    
                                                                                                    
                                                                                                    
                                                                                                    
                           
<?xpacket end="w"?></metadata>
<path d="M67.5,85.5H61.2V69.3a23.9,23.9,0,1,0-47.7,0V85.5H8a2.9,2.9,0,0,0-3,3v51.2a3,3,0,0,0,3,3H67.5a3,3,0,0,0,3-3V88.5A2.9,2.9,0,0,0,67.5,85.5Zm-48-16.2a17.9,17.9,0,1,1,35.7,0V85.5H19.5Zm45,67.4H11V91.5H64.5Z"/><path d="M162,27.3H32.6a3.1,3.1,0,0,0-3,3v7.4h6V33.3H139v7.8a3.1,3.1,0,0,0,3,3,6.3,6.3,0,0,1,6.3,6.2,2.9,2.9,0,0,0,3,3H159V70.1h-7.7a3,3,0,0,0-3,3,6.3,6.3,0,0,1-6.3,6.3,3,3,0,0,0-3,3v8H79.1v6H162a3,3,0,0,0,3-3V30.3A3,3,0,0,0,162,27.3Zm-8.1,20a12.4,12.4,0,0,0-8.9-8.9V33.3h14v14ZM145,90.4V85a12.2,12.2,0,0,0,8.9-8.9H159V90.4Z"/><path d="M97.3,81.5A19.7,19.7,0,1,0,77.7,61.9,19.7,19.7,0,0,0,97.3,81.5Zm0-33.3A13.7,13.7,0,1,1,83.7,61.9,13.7,13.7,0,0,1,97.3,48.2Z"/></svg>
